flaticon/seo-and-analytics/browser-18.svg

<svg xmlns="http://www.w3.org/2000/svg" width="32" height="32" viewBox="0 0 24 24">
    <path d="M2.800781 1.199219C1.921875 1.199219 1.199219 1.921875 1.199219 2.800781 1.199219 3.679688 1.921875 4.398438 2.800781 4.398438 3.679688 4.398438 4.398438 3.679688 4.398438 2.800781 4.398438 1.921875 3.679688 1.199219 2.800781 1.199219zM2.800781 3.601562C2.359375 3.601562 2 3.238281 2 2.800781 2 2.359375 2.359375 2 2.800781 2 3.238281 2 3.601562 2.359375 3.601562 2.800781 3.601562 3.238281 3.238281 3.601562 2.800781 3.601562zM6.398438 1.199219C5.519531 1.199219 4.800781 1.921875 4.800781 2.800781 4.800781 3.679688 5.519531 4.398438 6.398438 4.398438 7.28125 4.398438 8 3.679688 8 2.800781 8 1.921875 7.28125 1.199219 6.398438 1.199219zM6.398438 3.601562C5.960938 3.601562 5.601562 3.238281 5.601562 2.800781 5.601562 2.359375 5.960938 2 6.398438 2 6.839844 2 7.199219 2.359375 7.199219 2.800781 7.199219 3.238281 6.839844 3.601562 6.398438 3.601562zM10 1.199219C9.121094 1.199219 8.398438 1.921875 8.398438 2.800781 8.398438 3.679688 9.121094 4.398438 10 4.398438 10.878906 4.398438 11.601562 3.679688 11.601562 2.800781 11.601562 1.921875 10.878906 1.199219 10 1.199219zM10 3.601562C9.558594 3.601562 9.199219 3.238281 9.199219 2.800781 9.199219 2.359375 9.558594 2 10 2 10.441406 2 10.800781 2.359375 10.800781 2.800781 10.800781 3.238281 10.441406 3.601562 10 3.601562zM10 3.601562"/>
    <path d="M 22.878906 0 L 1.160156 0 C 0.519531 0 0 0.519531 0 1.160156 L 0 22.878906 C 0 23.519531 0.480469 24 1.121094 24 L 22.878906 24 C 23.519531 24 24 23.519531 24 22.878906 L 24 1.160156 C 24 0.519531 23.480469 0 22.878906 0 Z M 1.28125 23.199219 C 1 23.199219 0.800781 23 0.800781 22.71875 L 0.800781 16.800781 L 11.601562 16.800781 L 11.601562 23.199219 Z M 12.398438 23.199219 L 12.398438 16.800781 L 23.199219 16.800781 L 23.199219 22.71875 C 23.199219 23 23 23.199219 22.71875 23.199219 Z M 23.199219 16 L 0.800781 16 L 0.800781 5.601562 L 23.199219 5.601562 Z M 0.800781 4.800781 L 0.800781 1.160156 C 0.800781 0.960938 0.960938 0.800781 1.160156 0.800781 L 22.839844 0.800781 C 23.039062 0.800781 23.199219 0.960938 23.199219 1.160156 L 23.199219 4.800781 Z M 0.800781 4.800781"/>
    <path d="M2.398438 18.800781L7.601562 18.800781C7.839844 18.800781 8 18.640625 8 18.398438 8 18.160156 7.839844 18 7.601562 18L2.398438 18C2.160156 18 2 18.160156 2 18.398438 2 18.640625 2.160156 18.800781 2.398438 18.800781zM10 18L9.199219 18C8.960938 18 8.800781 18.160156 8.800781 18.398438 8.800781 18.640625 8.960938 18.800781 9.199219 18.800781L10 18.800781C10.238281 18.800781 10.398438 18.640625 10.398438 18.398438 10.398438 18.160156 10.238281 18 10 18zM10 19.601562L8 19.601562C7.761719 19.601562 7.601562 19.761719 7.601562 20 7.601562 20.238281 7.761719 20.398438 8 20.398438L10 20.398438C10.238281 20.398438 10.398438 20.238281 10.398438 20 10.398438 19.761719 10.238281 19.601562 10 19.601562zM2.398438 20.398438L2.800781 20.398438C3.039062 20.398438 3.199219 20.238281 3.199219 20 3.199219 19.761719 3.039062 19.601562 2.800781 19.601562L2.398438 19.601562C2.160156 19.601562 2 19.761719 2 20 2 20.238281 2.160156 20.398438 2.398438 20.398438zM6.398438 19.601562L4.800781 19.601562C4.558594 19.601562 4.398438 19.761719 4.398438 20 4.398438 20.238281 4.558594 20.398438 4.800781 20.398438L6.398438 20.398438C6.640625 20.398438 6.800781 20.238281 6.800781 20 6.800781 19.761719 6.640625 19.601562 6.398438 19.601562zM3.199219 21.199219L2.398438 21.199219C2.160156 21.199219 2 21.359375 2 21.601562 2 21.839844 2.160156 22 2.398438 22L3.199219 22C3.441406 22 3.601562 21.839844 3.601562 21.601562 3.601562 21.359375 3.441406 21.199219 3.199219 21.199219zM5.601562 21.199219L4.800781 21.199219C4.558594 21.199219 4.398438 21.359375 4.398438 21.601562 4.398438 21.839844 4.558594 22 4.800781 22L5.601562 22C5.839844 22 6 21.839844 6 21.601562 6 21.359375 5.839844 21.199219 5.601562 21.199219zM10 21.199219L7.199219 21.199219C6.960938 21.199219 6.800781 21.359375 6.800781 21.601562 6.800781 21.839844 6.960938 22 7.199219 22L10 22C10.238281 22 10.398438 21.839844 10.398438 21.601562 10.398438 21.359375 10.238281 21.199219 10 21.199219zM21.601562 18L16.398438 18C16.160156 18 16 18.160156 16 18.398438 16 18.640625 16.160156 18.800781 16.398438 18.800781L21.601562 18.800781C21.839844 18.800781 22 18.640625 22 18.398438 22 18.160156 21.839844 18 21.601562 18zM14 18.800781L14.800781 18.800781C15.039062 18.800781 15.199219 18.640625 15.199219 18.398438 15.199219 18.160156 15.039062 18 14.800781 18L14 18C13.761719 18 13.601562 18.160156 13.601562 18.398438 13.601562 18.640625 13.761719 18.800781 14 18.800781zM14 20.398438L16 20.398438C16.238281 20.398438 16.398438 20.238281 16.398438 20 16.398438 19.761719 16.238281 19.601562 16 19.601562L14 19.601562C13.761719 19.601562 13.601562 19.761719 13.601562 20 13.601562 20.238281 13.761719 20.398438 14 20.398438zM21.601562 19.601562L21.199219 19.601562C20.960938 19.601562 20.800781 19.761719 20.800781 20 20.800781 20.238281 20.960938 20.398438 21.199219 20.398438L21.601562 20.398438C21.839844 20.398438 22 20.238281 22 20 22 19.761719 21.839844 19.601562 21.601562 19.601562zM19.199219 19.601562L17.601562 19.601562C17.359375 19.601562 17.199219 19.761719 17.199219 20 17.199219 20.238281 17.359375 20.398438 17.601562 20.398438L19.199219 20.398438C19.441406 20.398438 19.601562 20.238281 19.601562 20 19.601562 19.761719 19.441406 19.601562 19.199219 19.601562zM21.601562 21.199219L20.800781 21.199219C20.558594 21.199219 20.398438 21.359375 20.398438 21.601562 20.398438 21.839844 20.558594 22 20.800781 22L21.601562 22C21.839844 22 22 21.839844 22 21.601562 22 21.359375 21.839844 21.199219 21.601562 21.199219zM19.199219 21.199219L18.398438 21.199219C18.160156 21.199219 18 21.359375 18 21.601562 18 21.839844 18.160156 22 18.398438 22L19.199219 22C19.441406 22 19.601562 21.839844 19.601562 21.601562 19.601562 21.359375 19.441406 21.199219 19.199219 21.199219zM16.800781 21.199219L14 21.199219C13.761719 21.199219 13.601562 21.359375 13.601562 21.601562 13.601562 21.839844 13.761719 22 14 22L16.800781 22C17.039062 22 17.199219 21.839844 17.199219 21.601562 17.199219 21.359375 17.039062 21.199219 16.800781 21.199219zM8 14.519531C8.078125 14.679688 8.238281 14.800781 8.398438 14.800781L15.601562 14.800781C15.761719 14.800781 15.921875 14.679688 16 14.519531L17.199219 10.519531C17.199219 10.398438 17.199219 10.28125 17.121094 10.160156 17.039062 10.039062 16.921875 10 16.800781 10L16.398438 10 16.398438 8.398438C16.398438 8.160156 16.238281 8 16 8L12.160156 8 11.078125 6.921875C11 6.839844 10.921875 6.800781 10.800781 6.800781L8 6.800781C7.761719 6.800781 7.601562 6.960938 7.601562 7.199219L7.601562 10 7.199219 10C7.078125 10 6.960938 10.039062 6.878906 10.160156 6.800781 10.28125 6.761719 10.398438 6.800781 10.519531zM15.28125 14L8.679688 14 7.71875 10.800781 16.238281 10.800781zM8.398438 7.601562L10.640625 7.601562 11.71875 8.679688C11.800781 8.761719 11.878906 8.800781 12 8.800781L15.601562 8.800781 15.601562 10 8.398438 10zM8.398438 7.601562"/>
    <path d="M13.601562 12L10.398438 12C10.160156 12 10 12.160156 10 12.398438 10 12.640625 10.160156 12.800781 10.398438 12.800781L13.601562 12.800781C13.839844 12.800781 14 12.640625 14 12.398438 14 12.160156 13.839844 12 13.601562 12zM4 7.199219L6 7.199219C6.238281 7.199219 6.398438 7.039062 6.398438 6.800781 6.398438 6.558594 6.238281 6.398438 6 6.398438L4 6.398438C3.761719 6.398438 3.601562 6.558594 3.601562 6.800781 3.601562 7.039062 3.761719 7.199219 4 7.199219zM2 7.199219L2.398438 7.199219C2.640625 7.199219 2.800781 7.039062 2.800781 6.800781 2.800781 6.558594 2.640625 6.398438 2.398438 6.398438L2 6.398438C1.761719 6.398438 1.601562 6.558594 1.601562 6.800781 1.601562 7.039062 1.761719 7.199219 2 7.199219zM2 8.800781L3.601562 8.800781C3.839844 8.800781 4 8.640625 4 8.398438 4 8.160156 3.839844 8 3.601562 8L2 8C1.761719 8 1.601562 8.160156 1.601562 8.398438 1.601562 8.640625 1.761719 8.800781 2 8.800781zM6 8L5.199219 8C4.960938 8 4.800781 8.160156 4.800781 8.398438 4.800781 8.640625 4.960938 8.800781 5.199219 8.800781L6 8.800781C6.238281 8.800781 6.398438 8.640625 6.398438 8.398438 6.398438 8.160156 6.238281 8 6 8zM19.601562 13.199219C19.601562 13.441406 19.761719 13.601562 20 13.601562L22 13.601562C22.238281 13.601562 22.398438 13.441406 22.398438 13.199219 22.398438 12.960938 22.238281 12.800781 22 12.800781L20 12.800781C19.761719 12.800781 19.601562 12.960938 19.601562 13.199219zM18 13.601562L18.398438 13.601562C18.640625 13.601562 18.800781 13.441406 18.800781 13.199219 18.800781 12.960938 18.640625 12.800781 18.398438 12.800781L18 12.800781C17.761719 12.800781 17.601562 12.960938 17.601562 13.199219 17.601562 13.441406 17.761719 13.601562 18 13.601562zM18 15.199219L19.601562 15.199219C19.839844 15.199219 20 15.039062 20 14.800781 20 14.558594 19.839844 14.398438 19.601562 14.398438L18 14.398438C17.761719 14.398438 17.601562 14.558594 17.601562 14.800781 17.601562 15.039062 17.761719 15.199219 18 15.199219zM22 14.398438L21.199219 14.398438C20.960938 14.398438 20.800781 14.558594 20.800781 14.800781 20.800781 15.039062 20.960938 15.199219 21.199219 15.199219L22 15.199219C22.238281 15.199219 22.398438 15.039062 22.398438 14.800781 22.398438 14.558594 22.238281 14.398438 22 14.398438zM18.800781 8.398438L19.601562 8.398438 19.601562 9.199219C19.601562 9.441406 19.761719 9.601562 20 9.601562 20.238281 9.601562 20.398438 9.441406 20.398438 9.199219L20.398438 8.398438 21.199219 8.398438C21.441406 8.398438 21.601562 8.238281 21.601562 8 21.601562 7.761719 21.441406 7.601562 21.199219 7.601562L20.398438 7.601562 20.398438 6.800781C20.398438 6.558594 20.238281 6.398438 20 6.398438 19.761719 6.398438 19.601562 6.558594 19.601562 6.800781L19.601562 7.601562 18.800781 7.601562C18.558594 7.601562 18.398438 7.761719 18.398438 8 18.398438 8.238281 18.558594 8.398438 18.800781 8.398438zM5.480469 12.121094C5.320312 11.960938 5.078125 11.960938 4.921875 12.121094L4 13.039062 3.078125 12.121094C2.921875 11.960938 2.679688 11.960938 2.519531 12.121094 2.359375 12.28125 2.359375 12.519531 2.519531 12.679688L3.441406 13.601562 2.519531 14.519531C2.359375 14.679688 2.359375 14.921875 2.519531 15.078125 2.601562 15.160156 2.679688 15.199219 2.800781 15.199219 2.921875 15.199219 3 15.160156 3.078125 15.078125L4 14.160156 4.921875 15.078125C5 15.160156 5.078125 15.199219 5.199219 15.199219 5.320312 15.199219 5.398438 15.160156 5.480469 15.078125 5.640625 14.921875 5.640625 14.679688 5.480469 14.519531L4.558594 13.601562 5.480469 12.679688C5.640625 12.519531 5.640625 12.28125 5.480469 12.121094zM5.480469 12.121094"/>
</svg>

<svg xmlns="http://www.w3.org/2000/svg" width="32" height="32" viewBox="0 0 24 24">
    <path d="M2.8 1.2c-.878 0-1.6.722-1.6 1.6 0 .88.722 1.598 1.6 1.598.88 0 1.598-.718 1.598-1.597 0-.88-.718-1.602-1.597-1.602zm0 2.402A.804.804 0 0 1 2 2.8C2 2.359 2.36 2 2.8 2c.438 0 .802.36.802.8 0 .438-.364.802-.801.802zm0 0M6.398 1.2c-.878 0-1.597.722-1.597 1.6 0 .88.719 1.598 1.597 1.598C7.281 4.398 8 3.68 8 2.801c0-.88-.719-1.602-1.602-1.602zm0 2.402a.801.801 0 0 1 0-1.602c.442 0 .801.36.801.8 0 .438-.36.802-.8.802zm0 0M10 1.2c-.879 0-1.602.722-1.602 1.6 0 .88.723 1.598 1.602 1.598.879 0 1.602-.718 1.602-1.597 0-.88-.723-1.602-1.602-1.602zm0 2.402a.804.804 0 0 1-.8-.801.802.802 0 0 1 1.6 0c0 .437-.359.8-.8.8zm0 0"/>
    <path d="M22.879 0H1.16C.52 0 0 .52 0 1.16V22.88C0 23.519.48 24 1.121 24H22.88c.64 0 1.121-.48 1.121-1.121V1.16C24 .52 23.48 0 22.879 0zM1.28 23.2c-.281 0-.48-.2-.48-.481V16.8h10.8v6.398zm11.117 0v-6.4H23.2v5.919c0 .281-.199.48-.48.48zM23.2 16H.801V5.602h22.398zM.801 4.8V1.16C.8.96.96.8 1.16.8H22.84c.2 0 .36.16.36.36V4.8zm0 0"/>
    <path d="M2.398 18.8h5.204c.238 0 .398-.16.398-.402C8 18.16 7.84 18 7.602 18H2.398c-.238 0-.398.16-.398.398 0 .243.16.403.398.403zm0 0M10 18h-.8c-.24 0-.4.16-.4.398 0 .243.16.403.4.403h.8c.238 0 .398-.16.398-.403 0-.238-.16-.398-.398-.398zm0 0M10 19.602H8c-.238 0-.398.16-.398.398 0 .238.16.398.398.398h2c.238 0 .398-.16.398-.398 0-.238-.16-.398-.398-.398zm0 0M2.398 20.398h.403c.238 0 .398-.16.398-.398 0-.238-.16-.398-.398-.398h-.403c-.238 0-.398.16-.398.398 0 .238.16.398.398.398zm0 0M6.398 19.602H4.801c-.242 0-.403.16-.403.398 0 .238.16.398.403.398h1.597c.243 0 .403-.16.403-.398 0-.238-.16-.398-.403-.398zm0 0M3.2 21.2h-.802c-.238 0-.398.16-.398.402 0 .238.16.398.398.398H3.2c.242 0 .403-.16.403-.398 0-.243-.16-.403-.403-.403zm0 0M5.602 21.2H4.8c-.242 0-.403.16-.403.402 0 .238.16.398.403.398h.8c.239 0 .399-.16.399-.398 0-.243-.16-.403-.398-.403zm0 0M10 21.2H7.2c-.24 0-.4.16-.4.402 0 .238.16.398.4.398H10c.238 0 .398-.16.398-.398 0-.243-.16-.403-.398-.403zm0 0M21.602 18h-5.204c-.238 0-.398.16-.398.398 0 .243.16.403.398.403h5.204c.238 0 .398-.16.398-.403 0-.238-.16-.398-.398-.398zm0 0M14 18.8h.8c.24 0 .4-.16.4-.402 0-.238-.16-.398-.4-.398H14c-.238 0-.398.16-.398.398 0 .243.16.403.398.403zm0 0M14 20.398h2c.238 0 .398-.16.398-.398 0-.238-.16-.398-.398-.398h-2c-.238 0-.398.16-.398.398 0 .238.16.398.398.398zm0 0M21.602 19.602h-.403c-.238 0-.398.16-.398.398 0 .238.16.398.398.398h.403c.238 0 .398-.16.398-.398 0-.238-.16-.398-.398-.398zm0 0M19.2 19.602h-1.598c-.243 0-.403.16-.403.398 0 .238.16.398.403.398h1.597c.242 0 .403-.16.403-.398 0-.238-.16-.398-.403-.398zm0 0M21.602 21.2H20.8c-.242 0-.403.16-.403.402 0 .238.16.398.403.398h.8c.239 0 .399-.16.399-.398 0-.243-.16-.403-.398-.403zm0 0M19.2 21.2h-.802c-.238 0-.398.16-.398.402 0 .238.16.398.398.398h.801c.242 0 .403-.16.403-.398 0-.243-.16-.403-.403-.403zm0 0M16.8 21.2H14c-.238 0-.398.16-.398.402 0 .238.16.398.398.398h2.8c.24 0 .4-.16.4-.398 0-.243-.16-.403-.4-.403zm0 0M8 14.52c.078.16.238.28.398.28h7.204c.16 0 .32-.12.398-.28l1.2-4c0-.122 0-.239-.079-.36a.363.363 0 0 0-.32-.16h-.403V8.398c0-.238-.16-.398-.398-.398h-3.84l-1.082-1.078a.348.348 0 0 0-.277-.121H8c-.238 0-.398.16-.398.398V10h-.403a.363.363 0 0 0-.32.16c-.078.121-.117.238-.078.36zm7.281-.52H8.68l-.961-3.2h8.52zM8.398 7.602h2.243l1.078 1.078c.082.082.16.12.281.12h3.602V10H8.398zm0 0"/>
    <path d="M13.602 12h-3.204c-.238 0-.398.16-.398.398 0 .243.16.403.398.403h3.204c.238 0 .398-.16.398-.403 0-.238-.16-.398-.398-.398zm0 0M4 7.2h2c.238 0 .398-.16.398-.4 0-.241-.16-.402-.398-.402H4c-.238 0-.398.16-.398.403 0 .238.16.398.398.398zm0 0M2 7.2h.398c.243 0 .403-.16.403-.4 0-.241-.16-.402-.403-.402H2c-.238 0-.398.16-.398.403 0 .238.16.398.398.398zm0 0M2 8.8h1.602C3.84 8.8 4 8.64 4 8.399 4 8.16 3.84 8 3.602 8H2c-.238 0-.398.16-.398.398 0 .243.16.403.398.403zm0 0M6 8h-.8c-.24 0-.4.16-.4.398 0 .243.16.403.4.403H6c.238 0 .398-.16.398-.403C6.398 8.16 6.238 8 6 8zm0 0M19.602 13.2c0 .241.16.402.398.402h2c.238 0 .398-.16.398-.403 0-.238-.16-.398-.398-.398h-2c-.238 0-.398.16-.398.398zm0 0M18 13.602h.398c.243 0 .403-.16.403-.403 0-.238-.16-.398-.403-.398H18c-.238 0-.398.16-.398.398 0 .242.16.403.398.403zm0 0M18 15.2h1.602c.238 0 .398-.16.398-.4 0-.241-.16-.402-.398-.402H18c-.238 0-.398.16-.398.403 0 .238.16.398.398.398zm0 0M22 14.398h-.8c-.24 0-.4.16-.4.403 0 .238.16.398.4.398h.8c.238 0 .398-.16.398-.398 0-.242-.16-.403-.398-.403zm0 0M18.8 8.398h.802V9.2c0 .242.16.403.398.403.238 0 .398-.16.398-.403v-.8h.801c.242 0 .403-.16.403-.399 0-.238-.16-.398-.403-.398h-.8V6.8c0-.242-.16-.403-.399-.403-.238 0-.398.16-.398.403v.8H18.8c-.242 0-.403.16-.403.399 0 .238.16.398.403.398zm0 0M5.48 12.121a.385.385 0 0 0-.558 0L4 13.04l-.922-.918a.385.385 0 0 0-.558 0 .385.385 0 0 0 0 .559l.921.922-.921.918a.385.385 0 0 0 0 .558c.082.082.16.121.28.121.122 0 .2-.039.278-.12L4 14.16l.922.918a.348.348 0 0 0 .277.121c.121 0 .2-.039.281-.12a.385.385 0 0 0 0-.56l-.921-.917.921-.922a.385.385 0 0 0 0-.559zm0 0"/>
</svg>
